public/images/github.svg

<svg enable-background="new 0 0 120.775 117.793" height="117.793" viewBox="0 0 120.775 117.793" width="120.775" xmlns="http://www.w3.org/2000/svg"><g fill="#fff"><path clip-rule="evenodd" d="m60.388 0c-33.347 0-60.388 27.035-60.388 60.388 0 26.681 17.303 49.316 41.297 57.302 3.018.559 4.126-1.311 4.126-2.905 0-1.439-.056-6.197-.082-11.243-16.8 3.653-20.345-7.125-20.345-7.125-2.747-6.979-6.705-8.836-6.705-8.836-5.479-3.748.413-3.671.413-3.671 6.063.426 9.257 6.224 9.257 6.224 5.386 9.231 14.127 6.563 17.573 5.02.542-3.902 2.106-6.567 3.834-8.075-13.413-1.526-27.514-6.705-27.514-29.844 0-6.593 2.359-11.979 6.223-16.209-.627-1.521-2.694-7.663.585-15.981 0 0 5.071-1.622 16.61 6.19 4.817-1.338 9.983-2.009 15.115-2.032 5.132.023 10.302.694 15.128 2.032 11.526-7.813 16.59-6.19 16.59-6.19 3.287 8.318 1.22 14.46.593 15.981 3.872 4.229 6.215 9.616 6.215 16.209 0 23.194-14.127 28.301-27.574 29.796 2.166 1.874 4.096 5.549 4.096 11.183 0 8.08-.069 14.583-.069 16.572 0 1.607 1.087 3.49 4.147 2.897 23.981-7.994 41.263-30.622 41.263-57.294-.001-33.354-27.038-60.389-60.388-60.389z" fill-rule="evenodd"/><path d="m22.872 86.703c-.133.301-.605.391-1.035.185-.438-.197-.684-.606-.542-.907.13-.309.603-.395 1.04-.188.438.196.688.609.537.91zm-.743-.551"/><path d="m25.318 89.432c-.288.267-.852.143-1.233-.279-.396-.421-.469-.984-.177-1.255.297-.267.843-.142 1.238.279.396.426.473.984.172 1.255zm-.576-.619"/><path d="m27.699 92.909c-.37.258-.976.017-1.35-.521-.37-.537-.37-1.182.009-1.439.374-.258.971-.025 1.35.507.369.546.369 1.19-.009 1.453zm0 0"/><path d="m30.961 96.27c-.331.365-1.036.267-1.552-.231-.528-.486-.675-1.178-.344-1.543.336-.365 1.045-.263 1.564.231.525.486.684 1.181.332 1.543zm0 0"/><path d="m35.461 98.221c-.146.473-.825.688-1.509.486-.684-.207-1.13-.761-.992-1.238.142-.477.824-.7 1.513-.485.682.205 1.13.755.988 1.237zm0 0"/><path d="m40.403 98.582c.017.498-.563.911-1.281.92-.722.017-1.307-.387-1.314-.877 0-.503.567-.911 1.289-.924.717-.013 1.306.387 1.306.881zm0 0"/><path d="m45.002 97.8c.086.485-.413.984-1.126 1.117-.701.129-1.35-.172-1.439-.653-.087-.498.421-.997 1.121-1.126.713-.124 1.353.168 1.444.662zm0 0"/></g></svg>

<?xml version="1.0" encoding="utf-8"?>
<!-- Generator: Adobe Illustrator 16.0.0, SVG Export Plug-In . SVG Version: 6.00 Build 0)  -->
<!DOCTYPE svg PUBLIC "-//W3C//DTD SVG 1.1//EN" "http://www.w3.org/Graphics/SVG/1.1/DTD/svg11.dtd">
<svg version="1.1" id="Layer_1" xmlns="http://www.w3.org/2000/svg" xmlns:xlink="http://www.w3.org/1999/xlink" x="0px" y="0px"
	 width="120.775px" height="117.793px" viewBox="0 0 120.775 117.793" enable-background="new 0 0 120.775 117.793"
	 xml:space="preserve">
<g>
	<path fill-rule="evenodd" clip-rule="evenodd" fill="#FFFFFF" d="M60.388,0C27.041,0,0,27.035,0,60.388
		c0,26.681,17.303,49.316,41.297,57.302c3.018,0.559,4.126-1.311,4.126-2.905c0-1.439-0.056-6.197-0.082-11.243
		c-16.8,3.653-20.345-7.125-20.345-7.125c-2.747-6.979-6.705-8.836-6.705-8.836c-5.479-3.748,0.413-3.671,0.413-3.671
		c6.063,0.426,9.257,6.224,9.257,6.224c5.386,9.231,14.127,6.563,17.573,5.02c0.542-3.902,2.106-6.567,3.834-8.075
		c-13.413-1.526-27.514-6.705-27.514-29.844c0-6.593,2.359-11.979,6.223-16.209c-0.627-1.521-2.694-7.663,0.585-15.981
		c0,0,5.071-1.622,16.61,6.19c4.817-1.338,9.983-2.009,15.115-2.032c5.132,0.023,10.302,0.694,15.128,2.032
		c11.526-7.813,16.59-6.19,16.59-6.19c3.287,8.318,1.22,14.46,0.593,15.981c3.872,4.229,6.215,9.616,6.215,16.209
		c0,23.194-14.127,28.301-27.574,29.796c2.166,1.874,4.096,5.549,4.096,11.183c0,8.08-0.069,14.583-0.069,16.572
		c0,1.607,1.087,3.49,4.147,2.897c23.981-7.994,41.263-30.622,41.263-57.294C120.775,27.035,93.738,0,60.388,0z"/>
	<path fill="#FFFFFF" d="M22.872,86.703c-0.133,0.301-0.605,0.391-1.035,0.185c-0.438-0.197-0.684-0.606-0.542-0.907
		c0.13-0.309,0.603-0.395,1.04-0.188C22.773,85.989,23.023,86.402,22.872,86.703L22.872,86.703z M22.129,86.152"/>
	<path fill="#FFFFFF" d="M25.318,89.432c-0.288,0.267-0.852,0.143-1.233-0.279c-0.396-0.421-0.469-0.984-0.177-1.255
		c0.297-0.267,0.843-0.142,1.238,0.279C25.542,88.603,25.619,89.161,25.318,89.432L25.318,89.432z M24.742,88.813"/>
	<path fill="#FFFFFF" d="M27.699,92.909c-0.37,0.258-0.976,0.017-1.35-0.521c-0.37-0.537-0.37-1.182,0.009-1.439
		c0.374-0.258,0.971-0.025,1.35,0.507C28.077,92.002,28.077,92.646,27.699,92.909L27.699,92.909z M27.699,92.909"/>
	<path fill="#FFFFFF" d="M30.961,96.27c-0.331,0.365-1.036,0.267-1.552-0.231c-0.528-0.486-0.675-1.178-0.344-1.543
		c0.336-0.365,1.045-0.263,1.564,0.231C31.154,95.213,31.313,95.908,30.961,96.27L30.961,96.27z M30.961,96.27"/>
	<path fill="#FFFFFF" d="M35.461,98.221c-0.146,0.473-0.825,0.688-1.509,0.486c-0.684-0.207-1.13-0.761-0.992-1.238
		c0.142-0.477,0.824-0.7,1.513-0.485C35.155,97.189,35.603,97.739,35.461,98.221L35.461,98.221z M35.461,98.221"/>
	<path fill="#FFFFFF" d="M40.403,98.582c0.017,0.498-0.563,0.911-1.281,0.92c-0.722,0.017-1.307-0.387-1.314-0.877
		c0-0.503,0.567-0.911,1.289-0.924C39.814,97.688,40.403,98.088,40.403,98.582L40.403,98.582z M40.403,98.582"/>
	<path fill="#FFFFFF" d="M45.002,97.8c0.086,0.485-0.413,0.984-1.126,1.117c-0.701,0.129-1.35-0.172-1.439-0.653
		c-0.087-0.498,0.421-0.997,1.121-1.126C44.271,97.014,44.911,97.306,45.002,97.8L45.002,97.8z M45.002,97.8"/>
</g>
</svg>
